symbolic/22x22/apps/artsbuilder.svg

<svg xmlns="http://www.w3.org/2000/svg" width="22" height="22" version="1">
 <rect style="opacity:0.2" width="20" height="20" x="1" y=".5" rx="10" ry="10"/>
 <rect style="fill:#9d9d9d" width="20" height="20" x="1" y="0" rx="10" ry="10"/>
 <circle style="fill:#707070" cx="-10" cy="-11" r="8" transform="matrix(0,-1,-1,0,0,0)"/>
 <circle style="fill:#3f3f3f" cx="-10" cy="-11" r="6" transform="matrix(0,-1,-1,0,0,0)"/>
 <circle style="opacity:0.1" cx="-10.5" cy="-11" r="3" transform="matrix(0,-1,-1,0,0,0)"/>
 <circle style="fill:#4f4f4f" cx="-10" cy="-11" r="3" transform="matrix(0,-1,-1,0,0,0)"/>
 <path style="opacity:0.1;fill:#ffffff" d="M 11,7 A 3,3 0 0 0 8,10 3,3 0 0 0 8.012695,10.250977 3,3 0 0 1 11,7.5 3,3 0 0 1 13.987305,10.249024 3,3 0 0 0 14,10 3,3 0 0 0 11,7 Z"/>
 <path style="opacity:0.1;fill:#ffffff" d="M 11,0 C 5.4601975,0 1,4.4601975 1,10 1,10.08378 1.00383,10.16673 1.00586,10.25 1.1379458,4.8269035 5.543973,0.5 11,0.5 c 5.456027,0 9.862054,4.3269035 9.99414,9.75 C 20.996169,10.16673 21,10.083776 21,10 21,4.4601975 16.539802,0 11,0 Z"/>
 <circle style="opacity:0.2" cx="16.5" cy="16" r="5.5"/>
 <circle style="fill:#31b58e" cx="16.5" cy="15.5" r="5.5"/>
 <path style="fill:#ffffff" d="M 15,12.341797 A 3.5,3.5 0 0 0 13,15.5 a 3.5,3.5 0 0 0 2,3.158203 v 2.12793 A 5.5,5.5 0 0 0 16.5,21 5.5,5.5 0 0 0 18,20.790039 V 18.657226 A 3.5,3.5 0 0 0 20,15.5 3.5,3.5 0 0 0 18,12.342774 V 16 h -3 z"/>
</svg>

<svg xmlns="http://www.w3.org/2000/svg" width="22" height="22" version="1"><rect style="opacity:.2" width="20" height="20" x="1" y=".5" rx="10" ry="10"/><rect style="fill:#9d9d9d" width="20" height="20" x="1" rx="10" ry="10"/><circle style="fill:#707070" cx="-10" cy="-11" r="8" transform="matrix(0 -1 -1 0 0 0)"/><circle style="fill:#3f3f3f" cx="-10" cy="-11" r="6" transform="matrix(0 -1 -1 0 0 0)"/><circle style="opacity:.1" cx="-10.5" cy="-11" r="3" transform="matrix(0 -1 -1 0 0 0)"/><circle style="fill:#4f4f4f" cx="-10" cy="-11" r="3" transform="matrix(0 -1 -1 0 0 0)"/><path style="opacity:.1;fill:#fff" d="M11 7a3 3 0 0 0-3 3 3 3 0 0 0 .013.251A3 3 0 0 1 11 7.5a3 3 0 0 1 2.987 2.749A3 3 0 0 0 14 10a3 3 0 0 0-3-3z"/><path style="opacity:.1;fill:#fff" d="M11 0C5.46 0 1 4.46 1 10c0 .084.004.167.006.25A9.976 9.976 0 0 1 11 .5a9.976 9.976 0 0 1 9.994 9.75c.002-.083.006-.166.006-.25 0-5.54-4.46-10-10-10z"/><circle style="opacity:.2" cx="16.5" cy="16" r="5.5"/><circle style="fill:#31b58e" cx="16.5" cy="15.5" r="5.5"/><path style="fill:#fff" d="M15 12.342a3.5 3.5 0 0 0-2 3.158 3.5 3.5 0 0 0 2 3.158v2.128a5.5 5.5 0 0 0 1.5.214 5.5 5.5 0 0 0 1.5-.21v-2.133a3.5 3.5 0 0 0 2-3.157 3.5 3.5 0 0 0-2-3.157V16h-3z"/></svg>
